material/.icons/material/clipboard-plus-outline.svg

<svg xmlns="http://www.w3.org/2000/svg" viewBox="0 0 24 24"><path d="M19 3h-4.18C14.4 1.84 13.3 1 12 1s-2.4.84-2.82 2H5c-1.1 0-2 .9-2 2v14a2 2 0 002 2h14c1.11 0 2-.89 2-2V5a2 2 0 00-2-2m-7 0c.55 0 1 .45 1 1s-.45 1-1 1-1-.45-1-1 .45-1 1-1M7 7h10V5h2v14H5V5h2v2m6 5h3v2h-3v3h-2v-3H8v-2h3V9h2v3z"/></svg>

<?xml version="1.0" encoding="UTF-8"?><!DOCTYPE svg PUBLIC "-//W3C//DTD SVG 1.1//EN" "http://www.w3.org/Graphics/SVG/1.1/DTD/svg11.dtd"><svg xmlns="http://www.w3.org/2000/svg" xmlns:xlink="http://www.w3.org/1999/xlink" version="1.1" id="mdi-clipboard-plus-outline" width="24" height="24" viewBox="0 0 24 24"><path d="M19 3H14.82C14.4 1.84 13.3 1 12 1S9.6 1.84 9.18 3H5C3.9 3 3 3.9 3 5V19C3 20.11 3.9 21 5 21H19C20.11 21 21 20.11 21 19V5C21 3.9 20.11 3 19 3M12 3C12.55 3 13 3.45 13 4S12.55 5 12 5 11 4.55 11 4 11.45 3 12 3M7 7H17V5H19V19H5V5H7V7M13 12H16V14H13V17H11V14H8V12H11V9H13V12Z" /></svg>
